public/library/scrollscan-icon-light.svg

<svg width="256" height="256" viewBox="0 0 256 256" fill="none" xmlns="http://www.w3.org/2000/svg">
<g clip-path="url(#clip0_8126_3978)">
<path d="M237.773 172.785V24.8549C237.497 12.47 227.694 2.56213 215.266 2.56213H60.3409C26.9256 3.11257 0 30.3593 0 63.7984C0 75.0824 3.03775 84.7151 7.73247 93.2469C11.5987 100.265 17.8123 106.87 23.8878 111.962C25.5448 113.338 24.7163 112.787 29.9633 116.09C37.2816 120.494 45.5663 122.695 45.5663 122.695V211.178C45.7044 215.307 46.2567 219.435 47.2233 223.15C50.6753 235.535 59.3743 245.168 71.1111 249.847C76.082 251.773 81.6052 253.149 87.5426 253.149L211.262 253.562C235.978 253.562 256 233.609 256 208.977C256 193.977 248.82 180.904 237.773 172.785Z" fill="#FFEEDA"/>
<path d="M241 209.96C240.446 225.85 227.422 238.562 211.488 238.562L126 238.286C132.789 230.41 136.946 220.185 136.946 209.131C136.946 191.583 126.416 179.562 126.416 179.562H211.488C227.837 179.562 241 192.827 241 209.131V209.96Z" fill="#EBC28E"/>
<path d="M31.8793 99.018C22.0809 89.7716 15.1806 77.7651 15.1806 63.4125V61.8945C16.0087 37.6055 36.0195 18.0087 60.3085 17.1806H215.151C219.153 17.3186 222.465 20.2168 222.465 24.3569V155.324C226.053 156.014 227.709 156.428 231.16 157.67C233.782 158.636 237.646 160.845 237.646 160.845V24.3569C237.37 11.9364 227.571 2 215.151 2H60.3085C26.9111 2.55202 0 29.8771 0 63.4125C0 82.8713 8.83237 99.57 23.461 111.301C24.427 112.129 25.393 113.095 28.0152 113.095C32.5693 113.095 35.7435 109.506 35.6055 105.504C35.4675 102.192 34.0874 100.95 31.8793 99.018Z" fill="#190602"/>
<path d="M211.286 164.157H89.8405C81.6982 164.157 75.0739 170.919 75.0739 179.061V196.45C75.3499 204.454 82.2502 211.493 90.2545 211.493H99.2249V196.45H90.2545V179.337C90.2545 179.337 92.4626 179.337 95.2227 179.337C110.541 179.337 121.858 193.552 121.858 208.871C121.858 222.395 109.575 239.646 89.0125 238.266C70.6577 237.024 60.8593 220.739 60.8593 208.871V60.7904C60.8593 54.1661 55.4771 48.6459 48.7148 48.6459H36.5703V63.8265H45.5407V208.871C45.1267 238.404 66.5175 253.308 88.8745 253.308L211.286 253.722C235.989 253.722 255.999 233.712 255.999 209.009C255.999 184.305 235.989 164.157 211.286 164.157ZM240.681 209.837C240.129 225.707 227.156 238.404 211.286 238.404L126.136 238.128C132.898 230.261 137.038 220.049 137.038 209.009C137.038 191.482 126.55 179.475 126.55 179.475H211.286C227.57 179.475 240.681 192.724 240.681 209.009V209.837Z" fill="#190602"/>
<path d="M179.546 66.4486H87.082V51.406H179.546C183.272 51.406 186.17 54.4421 186.17 58.0303V59.8244C186.17 63.5505 183.134 66.4486 179.546 66.4486Z" fill="#190602"/>
<path d="M179.546 137.798H87.082V122.755H179.546C183.272 122.755 186.17 125.791 186.17 129.379V131.173C186.17 134.762 183.134 137.798 179.546 137.798Z" fill="#190602"/>
<path d="M195.552 102.192H86.9414V87.1494H195.552C199.278 87.1494 202.176 90.1855 202.176 93.7737V95.5678C202.314 99.1559 199.278 102.192 195.552 102.192Z" fill="#190602"/>
</g>
<defs>
<clipPath id="clip0_8126_3978">
<rect width="256" height="256" fill="white"/>
</clipPath>
</defs>
</svg>

<svg xmlns="http://www.w3.org/2000/svg" width="256" height="256" fill="none" viewBox="0 0 256 256"><g clip-path="url(#a)"><path fill="#ffeeda" d="M237.773 172.785V24.855c-.276-12.385-10.079-22.293-22.507-22.293H60.341C26.926 3.112 0 30.36 0 63.798c0 11.284 3.038 20.917 7.732 29.449 3.867 7.018 10.08 13.623 16.156 18.715 1.657 1.376.828.825 6.075 4.128 7.319 4.404 15.603 6.605 15.603 6.605v88.483c.138 4.129.69 8.257 1.657 11.972 3.452 12.385 12.151 22.018 23.888 26.697 4.971 1.926 10.494 3.302 16.432 3.302l123.719.413c24.716 0 44.738-19.953 44.738-44.585 0-15-7.18-28.073-18.227-36.192"/><path fill="#ebc28e" d="M241 209.96c-.554 15.89-13.578 28.602-29.512 28.602L126 238.286c6.789-7.876 10.946-18.101 10.946-29.155 0-17.548-10.53-29.569-10.53-29.569h85.072c16.349 0 29.512 13.265 29.512 29.569z"/><path fill="#190602" d="M31.88 99.018c-9.8-9.246-16.7-21.253-16.7-35.605v-1.518c.829-24.29 20.84-43.886 45.129-44.714H215.15c4.002.138 7.314 3.036 7.314 7.176v130.967c3.588.69 5.244 1.104 8.695 2.346 2.622.966 6.486 3.175 6.486 3.175V24.357C237.37 11.937 227.571 2 215.151 2H60.309C26.91 2.552 0 29.877 0 63.413 0 82.87 8.832 99.57 23.461 111.3c.966.828 1.932 1.794 4.554 1.794 4.554 0 7.728-3.589 7.59-7.591-.137-3.312-1.518-4.554-3.726-6.486"/><path fill="#190602" d="M211.286 164.157H89.841c-8.143 0-14.767 6.762-14.767 14.904v17.389c.276 8.004 7.176 15.043 15.18 15.043h8.97V196.45h-8.97v-17.113h4.969c15.318 0 26.635 14.215 26.635 29.534 0 13.524-12.283 30.775-32.845 29.395-18.355-1.242-28.154-17.527-28.154-29.395V60.791c0-6.625-5.382-12.145-12.144-12.145H36.57v15.18h8.97v145.045c-.413 29.533 20.978 44.437 43.335 44.437l122.411.414c24.703 0 44.713-20.01 44.713-44.713 0-24.704-20.01-44.852-44.713-44.852m29.395 45.68c-.552 15.87-13.525 28.567-29.395 28.567l-85.15-.276c6.762-7.867 10.902-18.079 10.902-29.119 0-17.527-10.488-29.534-10.488-29.534h84.736c16.284 0 29.395 13.249 29.395 29.534zM179.546 66.449H87.082V51.406h92.464c3.726 0 6.624 3.036 6.624 6.624v1.794c0 3.727-3.036 6.625-6.624 6.625"/><path fill="#190602" d="M179.546 137.798H87.082v-15.043h92.464c3.726 0 6.624 3.036 6.624 6.624v1.794c0 3.589-3.036 6.625-6.624 6.625M195.552 102.192H86.942V87.149h108.61c3.726 0 6.624 3.037 6.624 6.625v1.794c.138 3.588-2.898 6.624-6.624 6.624"/></g><defs><clipPath id="a"><path fill="#fff" d="M0 0h256v256H0z"/></clipPath></defs></svg>
